img/logo/logo.svg

<svg width="166" height="15" viewBox="0 0 166 15" fill="none" xmlns="http://www.w3.org/2000/svg">
<path d="M3.77128 14.7443H0.47583L5.49714 0.198864H9.46021L14.4744 14.7443H11.179L7.53549 3.52273H7.42185L3.77128 14.7443ZM3.56532 9.02699H11.3494V11.4276H3.56532V9.02699Z" fill="#4D605F"/>
<path d="M16.2251 14.7443V0.198864H19.3004V12.2088H25.5362V14.7443H16.2251Z" fill="#4D605F"/>
<path d="M27.5728 14.7443V0.198864H37.3739V2.73438H30.6481V6.20028H36.8697V8.7358H30.6481V12.2088H37.4023V14.7443H27.5728Z" fill="#4D605F"/>
<path d="M42.7024 0.198864L45.6356 5.15625H45.7493L48.6967 0.198864H52.1697L47.7308 7.47159L52.2692 14.7443H48.7322L45.7493 9.77983H45.6356L42.6527 14.7443H39.1299L43.6825 7.47159L39.2152 0.198864H42.7024Z" fill="#4D605F"/>
<path d="M61.2518 14.7443H57.9563L62.9776 0.198864H66.9407L71.9549 14.7443H68.6594L65.016 3.52273H64.9023L61.2518 14.7443ZM61.0458 9.02699H68.8299V11.4276H61.0458V9.02699Z" fill="#4D605F"/>
<path d="M82.69 0.198864H85.7652V9.64489C85.7652 10.7055 85.5119 11.6335 85.0053 12.429C84.5034 13.2244 83.8003 13.8447 82.8959 14.2898C81.9916 14.7301 80.9381 14.9503 79.7354 14.9503C78.528 14.9503 77.4722 14.7301 76.5678 14.2898C75.6634 13.8447 74.9603 13.2244 74.4584 12.429C73.9565 11.6335 73.7056 10.7055 73.7056 9.64489V0.198864H76.7809V9.3821C76.7809 9.93608 76.9016 10.4285 77.1431 10.8594C77.3893 11.2902 77.7349 11.6288 78.18 11.875C78.6251 12.1212 79.1436 12.2443 79.7354 12.2443C80.332 12.2443 80.8505 12.1212 81.2908 11.875C81.7359 11.6288 82.0792 11.2902 82.3206 10.8594C82.5669 10.4285 82.69 9.93608 82.69 9.3821V0.198864Z" fill="#4D605F"/>
<path d="M95.0355 6.27131V8.67188H88.402V6.27131H95.0355Z" fill="#4D605F"/>
<path d="M96.1932 0.198864H99.6378L102.955 6.46307H103.097L106.413 0.198864H109.858L104.553 9.60227V14.7443H101.499V9.60227L96.1932 0.198864Z" fill="#4D605F"/>
<path d="M111.538 14.7443V0.198864H121.339V2.73438H114.613V6.20028H120.834V8.7358H114.613V12.2088H121.367V14.7443H111.538Z" fill="#4D605F"/>
<path d="M132.768 0.198864H135.843V9.64489C135.843 10.7055 135.59 11.6335 135.083 12.429C134.582 13.2244 133.878 13.8447 132.974 14.2898C132.07 14.7301 131.016 14.9503 129.814 14.9503C128.606 14.9503 127.55 14.7301 126.646 14.2898C125.742 13.8447 125.038 13.2244 124.537 12.429C124.035 11.6335 123.784 10.7055 123.784 9.64489V0.198864H126.859V9.3821C126.859 9.93608 126.98 10.4285 127.221 10.8594C127.467 11.2902 127.813 11.6288 128.258 11.875C128.703 12.1212 129.222 12.2443 129.814 12.2443C130.41 12.2443 130.929 12.1212 131.369 11.875C131.814 11.6288 132.157 11.2902 132.399 10.8594C132.645 10.4285 132.768 9.93608 132.768 9.3821V0.198864Z" fill="#4D605F"/>
<path d="M150.54 0.198864V14.7443H147.884L141.555 5.58949H141.449V14.7443H138.374V0.198864H141.072L147.351 9.34659H147.479V0.198864H150.54Z" fill="#4D605F"/>
<path d="M162.725 4.90057C162.626 4.55492 162.486 4.24953 162.306 3.98438C162.127 3.71449 161.906 3.48722 161.646 3.30256C161.39 3.11316 161.097 2.96875 160.765 2.86932C160.439 2.76989 160.076 2.72017 159.679 2.72017C158.935 2.72017 158.282 2.90483 157.718 3.27415C157.16 3.64347 156.724 4.18087 156.412 4.88636C156.099 5.58712 155.943 6.44413 155.943 7.45739C155.943 8.47064 156.097 9.33239 156.404 10.0426C156.712 10.7528 157.148 11.295 157.711 11.669C158.275 12.0384 158.94 12.223 159.707 12.223C160.403 12.223 160.997 12.0999 161.49 11.8537C161.987 11.6027 162.366 11.25 162.626 10.7955C162.891 10.3409 163.024 9.8035 163.024 9.18324L163.649 9.27557H159.899V6.96023H165.985V8.79261C165.985 10.071 165.716 11.1695 165.176 12.0881C164.636 13.0019 163.893 13.7074 162.946 14.2045C161.999 14.697 160.914 14.9432 159.693 14.9432C158.329 14.9432 157.131 14.6425 156.099 14.0412C155.067 13.4351 154.262 12.5758 153.684 11.4631C153.111 10.3456 152.825 9.01989 152.825 7.4858C152.825 6.30682 152.995 5.25568 153.336 4.33239C153.682 3.40436 154.165 2.61837 154.785 1.97443C155.405 1.33049 156.127 0.840436 156.951 0.504261C157.775 0.168087 158.668 0 159.629 0C160.453 0 161.22 0.120739 161.93 0.362216C162.64 0.598959 163.27 0.935133 163.819 1.37074C164.373 1.80634 164.825 2.32481 165.176 2.92614C165.526 3.52273 165.751 4.18087 165.85 4.90057H162.725Z" fill="#4D605F"/>
</svg>

<?xml version="1.0" encoding="utf-8"?>
<!-- Generator: Adobe Illustrator 27.0.0, SVG Export Plug-In . SVG Version: 6.00 Build 0)  -->
<svg version="1.1" id="Layer_1" xmlns="http://www.w3.org/2000/svg" xmlns:xlink="http://www.w3.org/1999/xlink" x="0px" y="0px"
	 viewBox="0 0 166 15" style="enable-background:new 0 0 166 15;" xml:space="preserve">
<style type="text/css">
	.st0{fill:#EFB624;}
</style>
<path class="st0" d="M3.8,14.7H0.5l5-14.5h4l5,14.5h-3.3L7.5,3.5H7.4L3.8,14.7z M3.6,9h7.8v2.4H3.6V9z"/>
<path class="st0" d="M16.2,14.7V0.2h3.1v12h6.2v2.5H16.2z"/>
<path class="st0" d="M27.6,14.7V0.2h9.8v2.5h-6.7v3.5h6.2v2.5h-6.2v3.5h6.8v2.5H27.6z"/>
<path class="st0" d="M42.7,0.2l2.9,5h0.1l2.9-5h3.5l-4.4,7.3l4.5,7.3h-3.5l-3-5h-0.1l-3,5h-3.5l4.6-7.3l-4.5-7.3H42.7z"/>
<path class="st0" d="M61.3,14.7H58l5-14.5h4l5,14.5h-3.3L65,3.5h-0.1L61.3,14.7z M61,9h7.8v2.4H61V9z"/>
<path class="st0" d="M82.7,0.2h3.1v9.4c0,1.1-0.3,2-0.8,2.8c-0.5,0.8-1.2,1.4-2.1,1.9c-0.9,0.4-2,0.7-3.2,0.7
	c-1.2,0-2.3-0.2-3.2-0.7c-0.9-0.4-1.6-1.1-2.1-1.9c-0.5-0.8-0.8-1.7-0.8-2.8V0.2h3.1v9.2c0,0.6,0.1,1,0.4,1.5c0.2,0.4,0.6,0.8,1,1
	s1,0.4,1.6,0.4c0.6,0,1.1-0.1,1.6-0.4c0.4-0.2,0.8-0.6,1-1c0.2-0.4,0.4-0.9,0.4-1.5V0.2z"/>
<path class="st0" d="M95,6.3v2.4h-6.6V6.3H95z"/>
<path class="st0" d="M96.2,0.2h3.4l3.3,6.3h0.1l3.3-6.3h3.4l-5.3,9.4v5.1h-3.1V9.6L96.2,0.2z"/>
<path class="st0" d="M111.5,14.7V0.2h9.8v2.5h-6.7v3.5h6.2v2.5h-6.2v3.5h6.8v2.5H111.5z"/>
<path class="st0" d="M132.8,0.2h3.1v9.4c0,1.1-0.3,2-0.8,2.8c-0.5,0.8-1.2,1.4-2.1,1.9c-0.9,0.4-2,0.7-3.2,0.7
	c-1.2,0-2.3-0.2-3.2-0.7c-0.9-0.4-1.6-1.1-2.1-1.9c-0.5-0.8-0.8-1.7-0.8-2.8V0.2h3.1v9.2c0,0.6,0.1,1,0.4,1.5c0.2,0.4,0.6,0.8,1,1
	c0.4,0.2,1,0.4,1.6,0.4c0.6,0,1.1-0.1,1.6-0.4c0.4-0.2,0.8-0.6,1-1c0.2-0.4,0.4-0.9,0.4-1.5V0.2z"/>
<path class="st0" d="M150.5,0.2v14.5h-2.7l-6.3-9.2h-0.1v9.2h-3.1V0.2h2.7l6.3,9.1h0.1V0.2H150.5z"/>
<path class="st0" d="M162.7,4.9c-0.1-0.3-0.2-0.7-0.4-0.9c-0.2-0.3-0.4-0.5-0.7-0.7c-0.3-0.2-0.5-0.3-0.9-0.4
	c-0.3-0.1-0.7-0.1-1.1-0.1c-0.7,0-1.4,0.2-2,0.6c-0.6,0.4-1,0.9-1.3,1.6c-0.3,0.7-0.5,1.6-0.5,2.6c0,1,0.2,1.9,0.5,2.6
	c0.3,0.7,0.7,1.3,1.3,1.6c0.6,0.4,1.2,0.6,2,0.6c0.7,0,1.3-0.1,1.8-0.4c0.5-0.3,0.9-0.6,1.1-1.1c0.3-0.5,0.4-1,0.4-1.6l0.6,0.1h-3.8
	V7h6.1v1.8c0,1.3-0.3,2.4-0.8,3.3c-0.5,0.9-1.3,1.6-2.2,2.1c-0.9,0.5-2,0.7-3.3,0.7c-1.4,0-2.6-0.3-3.6-0.9c-1-0.6-1.8-1.5-2.4-2.6
	c-0.6-1.1-0.9-2.4-0.9-4c0-1.2,0.2-2.2,0.5-3.2c0.3-0.9,0.8-1.7,1.4-2.4c0.6-0.6,1.3-1.1,2.2-1.5c0.8-0.3,1.7-0.5,2.7-0.5
	c0.8,0,1.6,0.1,2.3,0.4c0.7,0.2,1.3,0.6,1.9,1c0.6,0.4,1,1,1.4,1.6c0.4,0.6,0.6,1.3,0.7,2H162.7z"/>
</svg>
